X:10
T:Hurling Boys
Z: id:dc-setdance-11
M:6/8
L:1/8
K:G Major
D|G2F G2B|d2B GAB|cBA AGA|B2G DEF|!
G2F G2B|d2B G2g|fed AB^c|d3 d2:|!
f|e2d e2f|g2d B2G|d2B Gce|d2B G2g|edc BcA|G2F E2D|!
EFE EFG|DED D2g|edc BcA|G3 G2D|!
EFE EFG|DED D2g|edc BcA|G3 G2|]!

